X: 20482
T: WILL WATCH
C: J. Davy.
Q: "Moderate."
%R: air, waltz
B: W. Hamilton "Universal Tune-Book" Vol. 2 Glasgow 1846 p.48 #2
S: http://s3-eu-west-1.amazonaws.com/itma.dl.printmaterial/book_pdfs/hamiltonvol2web.pdf
Z: 2016 John Chambers <jc:trillian.mit.edu>
M: 3/4
L: 1/8
K: D
%%stretchstaff 0
% - - - - - - - - - - - - - - - - - - - - - - - - -
A>A |\
d2A2d2 | f4e>d | a2(ba)(gf) | e2d2e2 |\
A3Bc2 | d3ef2 | g2(gf)(ed) | (d2c2)A>A |\
d2A2d2 | f2z2e>d | a2(ba)(gf) | (fe)d2B2 |\
c2(dc)(BA) | e2a3e | (e>d)c2B2 | A4 A>A |
(gf)(ed)(cB) | A2d2A2 | B2G2g2 | f2e2f2 |\
g2b2e2 | a2f2d2 | g2B2e2 | (Hd2 Hc2) AA |\
B2(cd)(ef) | g2e2c2 | d2f2a2 | b2Hg2e2 |\
f3ga2 | b2[d'2d2](Ba/g/) | f3ge2 | d4 |]
% - - - - - - - - - - - - - - - - - - - - - - - - -

%%sep 1 1 500
%%sep 1 1 500

